packages/icons/web/log_out_large.svg

<svg width="24" height="24" viewBox="0 0 24 24" fill="none" xmlns="http://www.w3.org/2000/svg">
<path fill-rule="evenodd" clip-rule="evenodd" d="M7.5 6C7.22386 6 7 6.22386 7 6.5V17.5C7 17.7761 7.22386 18 7.5 18H11C11.5523 18 12 18.4477 12 19C12 19.5523 11.5523 20 11 20H7.5C6.11929 20 5 18.8807 5 17.5V6.5C5 5.11929 6.11929 4 7.5 4H11C11.5523 4 12 4.44772 12 5C12 5.55228 11.5523 6 11 6H7.5ZM14.8813 17.1187C14.5396 16.777 14.5396 16.223 14.8813 15.8813L17.7626 13H12C11.4477 13 11 12.5523 11 12C11 11.4477 11.4477 11 12 11H17.7626L14.8813 8.11872C14.5396 7.77701 14.5396 7.22299 14.8813 6.88128C15.223 6.53957 15.777 6.53957 16.1187 6.88128L20.6187 11.3813C20.9604 11.723 20.9604 12.277 20.6187 12.6187L16.1187 17.1187C15.777 17.4604 15.223 17.4604 14.8813 17.1187Z" fill="#212933"/>
</svg>

<svg width="24" height="24" fill="none" xmlns="http://www.w3.org/2000/svg">
    <path fill-rule="evenodd" clip-rule="evenodd" d="M7.5 6a.5.5 0 00-.5.5v11a.5.5 0 00.5.5H11a1 1 0 110 2H7.5A2.5 2.5 0 015 17.5v-11A2.5 2.5 0 017.5 4H11a1 1 0 110 2H7.5zm7.381 11.119a.875.875 0 010-1.238L17.763 13H12a1 1 0 110-2h5.763L14.88 8.119a.875.875 0 011.24-1.239l4.5 4.5a.875.875 0 010 1.238l-4.5 4.5a.875.875 0 01-1.238 0z" fill="currentColor"/>
</svg>
